packages/baserender/tests/test.cube
TITLE "Generated by Resolve"
LUT_3D_SIZE 5
0 0 0.205936
0.575647 0 0.119234
0.959579 0 0.0976272
1 0 0.140429
1 0 0.190921
0.247578 0.156374 0.194354
0.902647 0.078172 0.110903
1 0.13138 0.158801
1 0.195361 0.217441
1 0.261631 0.27866
0.617243 0.34934 0.191089
1 0.339178 0.176867
1 0.405371 0.239353
1 0.469902 0.300206
1 0.530465 0.356771
0.975982 0.57406 0.196109
1 0.618708 0.23772
1 0.67599 0.291661
1 0.727352 0.339834
1 0.771618 0.381262
1 0.820554 0.220401
1 0.867781 0.264286
1 0.901015 0.29427
1 0.901137 0.290806
1 0.888518 0.274632
0 0 0.320958
0.600595 0 0.231815
0.962875 0 0.214908
1 0 0.256886
1 0 0.306767
0.271183 0.152346 0.305043
0.919799 0.077409 0.223178
1 0.134585 0.273625
1 0.199222 0.331289
1 0.265751 0.391165
0.645884 0.347066 0.298344
1 0.34342 0.289021
1 0.409583 0.350057
1 0.473854 0.409262
1 0.533852 0.463996
0.999191 0.573587 0.300847
1 0.622232 0.344869
1 0.678996 0.397253
1 0.729427 0.44387
1 0.772686 0.483207
1 0.823087 0.324849
1 0.869444 0.366842
1 0.898482 0.392279
1 0.895582 0.385397
1 0.882338 0.368536
0 0 0.445975
0.624308 0 0.35465
0.965393 0 0.343267
1 0 0.385489
1 0.000350958 0.435035
0.294881 0.147189 0.42768
0.931029 0.0767681 0.349187
1 0.136965 0.401343
1 0.202014 0.458946
1 0.268772 0.517723
0.673304 0.343877 0.419379
1 0.346502 0.415503
1 0.41268 0.475044
1 0.47631 0.532036
1 0.535912 0.585641
1 0.571954 0.419409
1 0.624781 0.466484
1 0.680812 0.516823
1 0.73051 0.560906
1 0.772305 0.596979
1 0.824445 0.442374
1 0.86978 0.481987
1 0.894331 0.500648
1 0.88896 0.489982
1 0.875593 0.471336
0.00788891 0 0.573968
0.647196 0 0.481147
0.96762 0 0.475868
1 0 0.518837
1 0.00187686 0.56936
0.318563 0.141848 0.5552
0.938476 0.0771344 0.482216
1 0.138872 0.535897
1 0.204395 0.593042
1 0.271168 0.651789
0.700008 0.340307 0.547158
1 0.349081 0.549294
1 0.414862 0.607874
1 0.478309 0.66421
1 0.537301 0.716182
1 0.570336 0.547677
1 0.62652 0.597192
1 0.681727 0.646113
1 0.730587 0.688716
1 0.769818 0.721401
1 0.824674 0.570855
1 0.868879 0.608148
1 0.88838 0.620844
1 0.881102 0.607217
1 0.867872 0.587732
0.0267338 0 0.697749
0.669749 0 0.604471
0.970214 0 0.605615
1 0 0.650462
1 0.00364691 0.702388
0.343175 0.136446 0.680064
0.944106 0.078294 0.614511
1 0.140993 0.669657
1 0.206775 0.727489
1 0.273335 0.786328
0.726421 0.336797 0.67541
1 0.351537 0.683345
1 0.417105 0.742275
1 0.480034 0.798566
1 0.538323 0.84979
1 0.569879 0.679408
1 0.627756 0.731106
1 0.682216 0.778988
1 0.730098 0.820249
1 0.765652 0.84979
1 0.824582 0.702861
1 0.867521 0.739147
1 0.881682 0.746532
1 0.872786 0.730755
1 0.859663 0.710658
