packages/baserender/tests/test.cube
TITLE "Generated by Resolve"
LUT_3D_SIZE 33
0 0 0.205936
0.0196536 0 0.19736
0.0879225 0 0.189151
0.157794 0 0.18056
0.233997 0 0.170336
0.316197 0 0.158679
0.402029 0 0.145724
0.489326 0 0.132342
0.575647 0 0.119234
0.658732 0 0.106966
0.736828 0 0.0960403
0.80882 0 0.0869306
0.86952 0 0.0808118
0.900175 0 0.0827649
0.919493 0 0.0878157
0.939422 0 0.0927138
0.959579 0 0.0976272
0.979812 0 0.102693
1 0 0.107942
1 0 0.113039
1 0 0.118227
1 0 0.123568
1 0 0.129015
1 0 0.134508
1 0 0.140429
1 0 0.146304
1 0 0.152316
1 0 0.158389
1 0 0.164599
1 0 0.170993
1 0 0.177493
1 0 0.184268
1 0 0.190921
0 0.00889601 0.204486
0.0566415 0.00157168 0.196414
0.125078 0 0.18851
0.197086 0 0.179187
0.276295 0 0.167971
0.360311 0 0.155505
0.447089 0 0.14229
0.534264 0 0.128954
0.619364 0 0.11632
0.700343 0 0.104677
0.775647 0 0.0942702
0.844587 0 0.085771
0.891752 0 0.0831464
0.914977 0 0.0870985
0.934264 0 0.0924849
0.954452 0 0.0976425
0.974762 0 0.102724
0.995148 0 0.107866
1 0 0.113146
1 0 0.118578
1 0 0.124025
1 0 0.12987
1 0 0.135668
1 0 0.141665
1 0 0.147707
1 0 0.153841
1 0 0.160189
1 0 0.166644
1 0 0.173419
1 0.00520333 0.180011
1 0.0126345 0.18674
1 0.0201724 0.193561
1 0.0277256 0.200397
0.0240787 0.0301823 0.203037
0.0924239 0.0226902 0.194812
0.161822 0.0149233 0.186313
0.23711 0.00553903 0.176196
0.318761 0 0.164355
0.404257 0 0.151598
0.491371 0 0.138247
0.577874 0 0.125032
0.661448 0 0.112749
0.740246 0 0.101778
0.813107 0 0.0924239
0.8766 0 0.0857404
0.909804 0 0.0875105
0.929808 0 0.0926986
0.949859 0 0.0979171
0.970367 0 0.103182
0.991012 0 0.108598
1 0 0.114076
1 0 0.119768
1 0 0.125444
1 0 0.131411
1 0 0.137377
1 0 0.143343
1 0 0.149798
1 4.57771e-05 0.156115
1 0.00714122 0.162814
1 0.0144045 0.16939
1 0.0217746 0.176089
1 0.0292668 0.18291
1 0.0368048 0.189776
1 0.0444343 0.196567
1 0.0521401 0.203693
1 0.0599222 0.21091
0.0601816 0.0510567 0.201114
0.128389 0.0435645 0.192889
0.199741 0.0352178 0.183932
0.278264 0.024918 0.173053
0.361883 0.0132753 0.160678
0.448493 0.000869764 0.147539
0.535805 0 0.134249
0.621302 0 0.121431
0.702831 0 0.109651
0.779171 0 0.0997024
0.849317 0 0.0913405
0.900526 0 0.0881056
0.925353 0 0.0921187
0.944823 0 0.0977798
0.965545 0 0.103227
0.986252 0 0.108995
1 0 0.114656
1 0 0.120546
1 0 0.126589
1 0 0.132662
1 0.00263981 0.138888
1 0.00976577 0.14519
1 0.0169833 0.151843
1 0.0242008 0.158419
1 0.0315404 0.165072
1 0.0390021 0.171862
1 0.0465248 0.178714
1 0.054078 0.185595
1 0.0617227 0.192737
1 0.0694743 0.199939
1 0.0772717 0.20708
1 0.085008 0.214145
1 0.0930343 0.221515
0.0962844 0.0721141 0.199847
0.16527 0.0644083 0.191409
0.239719 0.0552682 0.181537
0.320912 0.044358 0.169879
0.406195 0.0323644 0.157153
0.4934 0.019791 0.143862
0.580362 0.00753796 0.131136
0.6645 0 0.118898
0.743938 0 0.107866
0.817655 0 0.0985122
0.883803 0 0.0915999
0.919951 0 0.0925612
0.940764 0 0.0981918
0.961059 0 0.103914
0.982086 0 0.109712
1 0 0.115709
1 0.0053254 0.121767
1 0.0121767 0.127916
1 0.0191958 0.134249
1 0.0263523 0.140948
1 0.0335699 0.147509
1 0.0408484 0.154101
1 0.0482795 0.16083
1 0.055848 0.167544
1 0.0634012 0.17435
1 0.0710002 0.181415
1 0.0787213 0.188586
1 0.0865187 0.195712
1 0.0943465 0.202869
1 0.102235 0.210086
1 0.110216 0.21738
1 0.118242 0.224781
1 0.126284 0.23238
0.132479 0.0929122 0.198276
0.203174 0.0848554 0.189319
0.281025 0.074876 0.178592
0.36434 0.0634775 0.166735
0.45095 0.0513313 0.153857
0.538521 0.0389868 0.14078
0.624598 0.0270848 0.128145
0.707073 0.0163119 0.116655
0.784405 0.0071107 0.106722
0.855665 0 0.0987716
0.910811 0 0.0950332
0.937652 0.00141909 0.0991531
0.95761 0.00839246 0.105348
0.978729 0.015198 0.111269
1 0.0220035 0.117372
1 0.0289616 0.123629
1 0.0360876 0.130282
1 0.0432136 0.136767
1 0.050309 0.143175
1 0.057847 0.150027
1 0.0651713 0.15668
1 0.0726024 0.163424
1 0.0801709 0.170443
1 0.0878462 0.177584
1 0.0956283 0.184695
1 0.103441 0.191821
1 0.111345 0.198886
1 0.119326 0.206088
1 0.127337 0.213458
1 0.135363 0.221057
1 0.14345 0.228458
1 0.151598 0.235935
1 0.159792 0.243458
0.169284 0.113756 0.196948
0.243076 0.105028 0.187488
0.323903 0.0944839 0.176211
0.409033 0.082826 0.163775
0.496376 0.0706798 0.150729
0.58378 0.0586862 0.137987
0.668757 0.0474861 0.126284
0.749264 0.0375525 0.115679
0.824155 0.0293126 0.106722
0.892287 0.0231785 0.0998856
0.932631 0.0247349 0.10074
0.954787 0.031281 0.106584
0.975479 0.0383612 0.112963
0.997055 0.0454108 0.119539
1 0.0526131 0.126101
1 0.0598459 0.132601
1 0.067216 0.139116
1 0.0746777 0.145846
1 0.0822003 0.152697
1 0.0897383 0.15967
1 0.0973831 0.166781
1 0.105135 0.173846
1 0.112947 0.180987
1 0.120775 0.188144
1 0.128695 0.195377
1 0.13669 0.202716
1 0.144701 0.210315
1 0.152682 0.217563
1 0.160952 0.224994
1 0.16907 0.23238
1 0.177111 0.23975
1 0.185245 0.247211
1 0.193591 0.255146
0.207614 0.135134 0.195666
0.28484 0.125566 0.185382
0.368078 0.114702 0.1738
0.45478 0.102937 0.161532
0.542626 0.090837 0.148775
0.629252 0.0792096 0.136355
0.712764 0.068986 0.125246
0.791165 0.0600595 0.115648
0.863661 0.0529946 0.107866
0.922499 0.0496986 0.103883
0.951904 0.054551 0.108248
0.972503 0.0619974 0.115084
0.994141 0.0692302 0.12163
1 0.0765087 0.128222
1 0.0839094 0.134951
1 0.0914168 0.141787
1 0.0989548 0.14873
1 0.106554 0.155749
1 0.114321 0.162676
1 0.122118 0.169802
1 0.129931 0.176944
1 0.137804 0.184146
1 0.145785 0.19144
1 0.153796 0.199054
1 0.161837 0.206424
1 0.169924 0.21384
1 0.178103 0.221332
1 0.186297 0.22887
1 0.194507 0.236408
1 0.202731 0.244221
1 0.211017 0.25185
1 0.219379 0.259373
1 0.22771 0.266957
0.247578 0.156374 0.194354
0.328115 0.14638 0.183734
0.413321 0.13521 0.171862
0.501152 0.123537 0.159487
0.589303 0.112078 0.147326
0.675258 0.10135 0.135912
0.756954 0.0918288 0.125719
0.833066 0.0840009 0.117372
0.902647 0.078172 0.110903
0.947082 0.0792401 0.111116
0.970642 0.0859998 0.117174
0.991653 0.0935836 0.124102
1 0.101076 0.130892
1 0.108522 0.137758
1 0.115923 0.144686
1 0.123766 0.151858
1 0.13138 0.158801
1 0.139071 0.16582
1 0.146914 0.173007
1 0.154849 0.18027
1 0.16286 0.187808
1 0.170947 0.195056
1 0.179034 0.202441
1 0.187167 0.209918
1 0.195361 0.217441
1 0.203555 0.224979
1 0.21178 0.232761
1 0.220035 0.240406
1 0.228336 0.248051
1 0.236652 0.255695
1 0.244953 0.263355
1 0.253285 0.271031
1 0.261631 0.27866
0.28954 0.178012 0.192981
0.372747 0.167758 0.182055
0.459815 0.156695 0.170321
0.548379 0.145296 0.158236
0.636011 0.134264 0.1467
0.720562 0.1243 0.136172
0.800244 0.115831 0.127047
0.873884 0.109026 0.119585
0.935927 0.10547 0.115358
0.968063 0.110155 0.119387
0.989181 0.117922 0.126452
1 0.125536 0.133471
1 0.133165 0.140429
1 0.140902 0.147509
1 0.148699 0.154665
1 0.156512 0.161837
1 0.164416 0.16907
1 0.172381 0.176654
1 0.180407 0.184024
1 0.188464 0.191424
1 0.196567 0.198886
1 0.204746 0.206409
1 0.21297 0.21387
1 0.221118 0.221424
1 0.229465 0.229175
1 0.237675 0.236744
1 0.245808 0.244236
1 0.254017 0.251789
1 0.262455 0.259586
1 0.270649 0.267155
1 0.278965 0.275029
1 0.287282 0.28278
1 0.295598 0.29044
0.333745 0.200595 0.192325
0.418906 0.190005 0.18114
0.507317 0.17908 0.169696
0.595972 0.167956 0.157931
0.68275 0.157595 0.146929
0.765484 0.148409 0.137087
0.842771 0.140841 0.128878
0.913619 0.135134 0.122591
0.962203 0.135485 0.122515
0.987274 0.14226 0.128664
1 0.150225 0.135988
1 0.158007 0.14313
1 0.16582 0.150286
1 0.173709 0.157443
1 0.181689 0.164874
1 0.1897 0.172229
1 0.197742 0.179629
1 0.205814 0.18706
1 0.213962 0.194568
1 0.222156 0.202121
1 0.23035 0.209873
1 0.238575 0.217533
1 0.246845 0.225162
1 0.255146 0.232822
1 0.263447 0.240482
1 0.271778 0.248096
1 0.280156 0.255665
1 0.288472 0.263523
1 0.296788 0.271305
1 0.305089 0.278996
1 0.313375 0.286656
1 0.32166 0.294331
1 0.329946 0.301976
0.379385 0.223865 0.192248
0.466606 0.213367 0.181109
0.555611 0.202441 0.169558
0.643854 0.191867 0.15819
0.729183 0.182223 0.147845
0.809827 0.173907 0.139132
0.88455 0.167254 0.131868
0.949569 0.163333 0.127321
0.984375 0.167712 0.131075
1 0.175555 0.138308
1 0.183322 0.145434
1 0.191379 0.153155
1 0.199222 0.160357
1 0.207111 0.167636
1 0.215167 0.175067
1 0.223316 0.182452
1 0.231525 0.189914
1 0.239704 0.197665
1 0.247913 0.205341
1 0.256153 0.212985
1 0.264439 0.220661
1 0.27274 0.228336
1 0.281025 0.236027
1 0.289342 0.243732
1 0.297642 0.251591
1 0.305959 0.259403
1 0.314275 0.267124
1 0.322606 0.274708
1 0.330922 0.282292
1 0.339193 0.289967
1 0.347433 0.297658
1 0.355612 0.305455
1 0.36379 0.313008
0.425834 0.24773 0.191745
0.514351 0.237156 0.180591
0.603616 0.22649 0.169589
0.691096 0.216358 0.158877
0.774685 0.20737 0.149279
0.852872 0.200015 0.141131
0.924849 0.1944 0.134859
0.977447 0.194049 0.133913
1 0.200778 0.140307
1 0.209033 0.147982
1 0.217044 0.155398
1 0.225071 0.162844
1 0.233158 0.170321
1 0.241306 0.177874
1 0.249485 0.185611
1 0.257664 0.193317
1 0.265904 0.200946
1 0.274174 0.208637
1 0.28249 0.216236
1 0.290745 0.223743
1 0.299123 0.23154
1 0.307362 0.239322
1 0.315511 0.246998
1 0.323705 0.254597
1 0.332128 0.26244
1 0.340276 0.270008
1 0.348547 0.277699
1 0.356802 0.285405
1 0.364996 0.293233
1 0.373159 0.300816
1 0.381353 0.308293
1 0.389532 0.315724
1 0.397574 0.323186
0.473014 0.272251 0.191501
0.562295 0.261677 0.180362
0.65124 0.251331 0.169451
0.737423 0.241856 0.159396
0.818952 0.233677 0.150637
0.894667 0.2271 0.14374
0.962371 0.222812 0.138903
1 0.226719 0.142245
1 0.234775 0.149538
1 0.242985 0.157061
1 0.251102 0.164614
1 0.259266 0.172351
1 0.267445 0.180087
1 0.275654 0.187716
1 0.283894 0.195407
1 0.292165 0.203113
1 0.30045 0.210834
1 0.308736 0.21857
1 0.317021 0.226429
1 0.325322 0.234318
1 0.333684 0.241932
1 0.342 0.249592
1 0.350271 0.257328
1 0.358526 0.265034
1 0.366781 0.27277
1 0.37499 0.280659
1 0.383154 0.288289
1 0.391318 0.295888
1 0.399435 0.303471
1 0.407507 0.310979
1 0.415503 0.318425
1 0.423377 0.326009
1 0.43122 0.333104
0.521019 0.297642 0.191318
0.610636 0.287266 0.180392
0.698741 0.277317 0.170138
0.783154 0.268482 0.1608
0.862379 0.261158 0.152926
0.935424 0.255497 0.146731
0.991699 0.254231 0.14493
1 0.26099 0.151141
1 0.269276 0.159014
1 0.277317 0.166598
1 0.285557 0.174105
1 0.293797 0.18175
1 0.302052 0.189487
1 0.310323 0.197208
1 0.318593 0.204959
1 0.326879 0.212802
1 0.335164 0.220722
1 0.343465 0.228489
1 0.351766 0.236255
1 0.360037 0.244007
1 0.368292 0.251728
1 0.376547 0.259464
1 0.384756 0.267399
1 0.392996 0.274937
1 0.401175 0.282445
1 0.409323 0.290059
1 0.417411 0.297612
1 0.425437 0.305089
1 0.433387 0.312764
1 0.441337 0.32018
1 0.449226 0.327535
1 0.457008 0.334783
1 0.464744 0.341985
0.569177 0.32314 0.191363
0.658427 0.3131 0.18056
0.745235 0.303761 0.170626
0.827588 0.295659 0.16199
0.904219 0.289158 0.154955
0.973816 0.284627 0.150011
1 0.2878 0.152804
1 0.295781 0.160266
1 0.304173 0.168139
1 0.312413 0.17586
1 0.320684 0.183612
1 0.328954 0.191363
1 0.337224 0.199191
1 0.345556 0.206973
1 0.353887 0.214694
1 0.362112 0.222416
1 0.370443 0.230243
1 0.378653 0.237949
1 0.38674 0.245533
1 0.394827 0.253376
1 0.403174 0.261204
1 0.41117 0.268696
1 0.419318 0.276341
1 0.42742 0.28394
1 0.435462 0.291447
1 0.443488 0.298985
1 0.451469 0.306401
1 0.459373 0.313802
1 0.467185 0.321111
1 0.474922 0.328344
1 0.482628 0.335546
1 0.490272 0.342824
1 0.497795 0.34995
0.617243 0.34934 0.191089
0.705837 0.339559 0.180819
0.790997 0.330816 0.171572
0.870863 0.323568 0.163775
0.944778 0.317937 0.157626
1 0.316136 0.155322
1 0.322347 0.161013
1 0.330892 0.16907
1 0.339178 0.176867
1 0.347433 0.18471
1 0.355703 0.192676
1 0.363989 0.200473
1 0.372274 0.20827
1 0.38056 0.216052
1 0.38883 0.223758
1 0.397147 0.231373
1 0.405371 0.239353
1 0.413581 0.247074
1 0.421744 0.254734
1 0.429877 0.262379
1 0.437995 0.270008
1 0.446052 0.277577
1 0.454017 0.285283
1 0.461982 0.29279
1 0.469902 0.300206
1 0.477745 0.307561
1 0.485512 0.314824
1 0.493156 0.321981
1 0.500725 0.328984
1 0.508492 0.336278
1 0.515801 0.343084
1 0.523095 0.349889
1 0.530465 0.356771
0.665431 0.376303 0.191592
0.752804 0.366995 0.181781
0.835813 0.358709 0.173007
0.913436 0.352377 0.166186
0.984039 0.347539 0.160861
1 0.34966 0.162448
1 0.357534 0.16968
1 0.366064 0.177874
1 0.374334 0.185657
1 0.38262 0.193469
1 0.39089 0.201266
1 0.399161 0.209049
1 0.407401 0.216815
1 0.415625 0.224826
1 0.42385 0.232563
1 0.432013 0.240253
1 0.440162 0.247913
1 0.448295 0.255528
1 0.456443 0.262989
1 0.464454 0.270665
1 0.472404 0.278187
1 0.480339 0.285664
1 0.488228 0.29305
1 0.49601 0.300359
1 0.503716 0.307591
1 0.511406 0.314916
1 0.519005 0.322194
1 0.526497 0.329213
1 0.533913 0.336156
1 0.541329 0.343038
1 0.548669 0.349706
1 0.55584 0.356344
1 0.562921 0.363058
0.712764 0.403464 0.191592
0.79852 0.39472 0.182376
0.879408 0.38732 0.174517
0.954116 0.381598 0.168368
1 0.37911 0.165652
1 0.384756 0.170825
1 0.393286 0.178882
1 0.401633 0.186664
1 0.409964 0.194308
1 0.418204 0.20209
1 0.426429 0.210117
1 0.434592 0.217838
1 0.442832 0.225605
1 0.450935 0.233265
1 0.4589 0.240757
1 0.466865 0.248249
1 0.475029 0.256168
1 0.482841 0.263584
1 0.490791 0.271061
1 0.498726 0.278416
1 0.506584 0.285618
1 0.514321 0.292897
1 0.522011 0.300221
1 0.529656 0.307561
1 0.537179 0.314626
1 0.544625 0.321614
1 0.552026 0.328557
1 0.55935 0.335424
1 0.566552 0.342153
1 0.573648 0.348867
1 0.580697 0.355642
1 0.587686 0.362173
1 0.594507 0.368521
0.759457 0.431037 0.191867
0.843168 0.422873 0.183474
0.921492 0.41619 0.176349
0.993133 0.411337 0.171038
1 0.412619 0.171878
1 0.420157 0.178958
1 0.428672 0.187015
1 0.436896 0.195041
1 0.445121 0.202823
1 0.453315 0.210575
1 0.461494 0.218235
1 0.469688 0.225742
1 0.477806 0.233371
1 0.485847 0.241138
1 0.493828 0.248753
1 0.501778 0.256245
1 0.509697 0.263722
1 0.51754 0.271122
1 0.525292 0.278416
1 0.532982 0.28574
1 0.540642 0.293126
1 0.548226 0.300252
1 0.555703 0.30721
1 0.563119 0.313954
1 0.570352 0.320699
1 0.577768 0.327657
1 0.584726 0.334234
1 0.591653 0.340932
1 0.598672 0.347509
1 0.605554 0.353933
1 0.612299 0.36025
1 0.619013 0.366506
1 0.625635 0.372686
0.805447 0.459113 0.192706
0.886549 0.451499 0.184466
0.962127 0.445563 0.178088
1 0.442405 0.174487
1 0.447349 0.179248
1 0.455711 0.187182
1 0.463996 0.195026
1 0.47216 0.202762
1 0.480293 0.210452
1 0.488411 0.218128
1 0.496483 0.225925
1 0.504479 0.233585
1 0.512474 0.240986
1 0.520455 0.248356
1 0.528328 0.255787
1 0.53611 0.263127
1 0.543816 0.270466
1 0.551492 0.277897
1 0.559106 0.285069
1 0.566598 0.292134
1 0.574014 0.299107
1 0.581399 0.306065
1 0.588693 0.312932
1 0.59585 0.319692
1 0.602945 0.326436
1 0.610056 0.332906
1 0.616968 0.339406
1 0.623758 0.345754
1 0.630472 0.352041
1 0.63714 0.358267
1 0.643656 0.364614
1 0.650034 0.370565
1 0.656352 0.37644
0.850324 0.487556 0.193484
0.929122 0.48069 0.186435
1 0.475563 0.180682
1 0.475853 0.180423
1 0.482979 0.187106
1 0.491417 0.195117
1 0.499519 0.202792
1 0.507561 0.210559
1 0.515633 0.218311
1 0.523568 0.225818
1 0.531334 0.233158
1 0.539086 0.240482
1 0.547066 0.248035
1 0.554635 0.255222
1 0.56231 0.262684
1 0.569986 0.26981
1 0.577585 0.276753
1 0.585031 0.283757
1 0.592416 0.29073
1 0.599756 0.297642
1 0.606958 0.304448
1 0.614038 0.31133
1 0.621103 0.317968
1 0.628092 0.324529
1 0.634913 0.330938
1 0.641642 0.337224
1 0.648325 0.343496
1 0.654932 0.349828
1 0.661433 0.355673
1 0.66775 0.361578
1 0.674052 0.367437
1 0.680217 0.37319
1 0.686229 0.378775
0.893568 0.516106 0.194278
0.969619 0.509957 0.187701
1 0.505959 0.183291
1 0.51014 0.18703
1 0.518242 0.194842
1 0.526467 0.202594
1 0.534493 0.21004
1 0.542428 0.217563
1 0.550347 0.225055
1 0.558206 0.232486
1 0.565942 0.239841
1 0.573632 0.247333
1 0.581292 0.254582
1 0.588876 0.261738
1 0.596338 0.268788
1 0.603738 0.275776
1 0.611109 0.282719
1 0.618402 0.289433
1 0.625559 0.296254
1 0.632593 0.302876
1 0.63946 0.309331
1 0.64651 0.315969
1 0.653117 0.322164
1 0.659678 0.328313
1 0.6663 0.334768
1 0.672786 0.340856
1 0.679133 0.346777
1 0.685435 0.352667
1 0.691661 0.35848
1 0.69778 0.364004
1 0.703746 0.369558
1 0.709636 0.375143
1 0.715434 0.380514
0.935378 0.544839 0.194873
1 0.539376 0.18909
1 0.538445 0.1879
1 0.545022 0.194064
1 0.553277 0.201907
1 0.561212 0.20943
1 0.5691 0.216861
1 0.576944 0.224094
1 0.584665 0.23154
1 0.59234 0.238819
1 0.59997 0.246021
1 0.607462 0.253101
1 0.614878 0.260105
1 0.622263 0.267079
1 0.629572 0.273976
1 0.636713 0.280964
1 0.643793 0.287633
1 0.650828 0.29427
1 0.657771 0.300801
1 0.664561 0.307179
1 0.671321 0.313375
1 0.678019 0.319707
1 0.684565 0.325872
1 0.690959 0.331853
1 0.697261 0.337758
1 0.703532 0.343603
1 0.709667 0.349325
1 0.715618 0.355016
1 0.721508 0.360616
1 0.727306 0.366003
1 0.733059 0.371344
1 0.738567 0.37644
1 0.743954 0.381277
0.975982 0.57406 0.196109
1 0.569436 0.191073
1 0.572519 0.193744
1 0.58024 0.201053
1 0.588266 0.208652
1 0.595956 0.216205
1 0.603494 0.223331
1 0.611002 0.230411
1 0.618708 0.23772
1 0.625986 0.244587
1 0.633433 0.251408
1 0.640803 0.258244
1 0.648005 0.265293
1 0.6551 0.271992
1 0.662165 0.278645
1 0.669154 0.285237
1 0.67599 0.291661
1 0.682719 0.297993
1 0.689387 0.304479
1 0.695994 0.310719
1 0.702434 0.316762
1 0.708751 0.322683
1 0.715114 0.32842
1 0.72134 0.334112
1 0.727352 0.339834
1 0.733242 0.345464
1 0.739116 0.350942
1 0.744884 0.356298
1 0.750469 0.361486
1 0.755962 0.366567
1 0.761395 0.371633
1 0.766629 0.376684
1 0.771618 0.381262
1 0.602945 0.196765
1 0.600946 0.194308
1 0.606744 0.199939
1 0.61474 0.207538
1 0.622431 0.214817
1 0.630014 0.222004
1 0.637491 0.229068
1 0.644892 0.236057
1 0.652262 0.243015
1 0.65951 0.250126
1 0.666636 0.25684
1 0.673716 0.263478
1 0.680812 0.269932
1 0.687724 0.276387
1 0.694484 0.28275
1 0.701137 0.289204
1 0.707637 0.295354
1 0.71429 0.30161
1 0.720516 0.307424
1 0.72668 0.313191
1 0.732921 0.31902
1 0.73901 0.324834
1 0.74493 0.33048
1 0.750805 0.335973
1 0.756619 0.34139
1 0.762325 0.346517
1 0.767895 0.351492
1 0.773358 0.356573
1 0.778668 0.36173
1 0.783749 0.366415
1 0.788647 0.370901
1 0.793408 0.375265
1 0.797513 0.378958
1 0.631769 0.197864
1 0.633631 0.199298
1 0.640864 0.206104
1 0.648661 0.21326
1 0.656107 0.220203
1 0.663493 0.227192
1 0.670787 0.234348
1 0.677974 0.241123
1 0.685054 0.247791
1 0.692103 0.254444
1 0.699046 0.26099
1 0.705852 0.267399
1 0.712551 0.273884
1 0.719219 0.280217
1 0.725795 0.286366
1 0.73225 0.29221
1 0.738598 0.298039
1 0.744869 0.303914
1 0.751003 0.309743
1 0.75697 0.31548
1 0.762875 0.320989
1 0.768734 0.326436
1 0.774441 0.331746
1 0.779995 0.336904
1 0.785473 0.34197
1 0.790814 0.347189
1 0.796033 0.351965
1 0.801022 0.356329
1 0.805768 0.360571
1 0.810101 0.364508
1 0.813565 0.367575
1 0.815808 0.369406
1 0.817731 0.371176
1 0.662333 0.200198
1 0.667231 0.204685
1 0.674739 0.21178
1 0.681956 0.218845
1 0.689372 0.225772
1 0.696391 0.232166
1 0.703441 0.238773
1 0.710445 0.245365
1 0.717296 0.25182
