packages/baserender/tests/test.cube
TITLE "Generated by Resolve"
LUT_3D_SIZE 9
0 0 0.205936
0.233997 0 0.170336
0.575647 0 0.119234
0.86952 0 0.0808118
0.959579 0 0.0976272
1 0 0.118227
1 0 0.140429
1 0 0.164599
1 0 0.190921
0.0962844 0.0721141 0.199847
0.406195 0.0323644 0.157153
0.743938 0 0.107866
0.940764 0 0.0981918
1 0.0053254 0.121767
1 0.0335699 0.147509
1 0.0634012 0.17435
1 0.0943465 0.202869
1 0.126284 0.23238
0.247578 0.156374 0.194354
0.589303 0.112078 0.147326
0.902647 0.078172 0.110903
1 0.101076 0.130892
1 0.13138 0.158801
1 0.16286 0.187808
1 0.195361 0.217441
1 0.228336 0.248051
1 0.261631 0.27866
0.425834 0.24773 0.191745
0.774685 0.20737 0.149279
1 0.200778 0.140307
1 0.233158 0.170321
1 0.265904 0.200946
1 0.299123 0.23154
1 0.332128 0.26244
1 0.364996 0.293233
1 0.397574 0.323186
0.617243 0.34934 0.191089
0.944778 0.317937 0.157626
1 0.339178 0.176867
1 0.372274 0.20827
1 0.405371 0.239353
1 0.437995 0.270008
1 0.469902 0.300206
1 0.500725 0.328984
1 0.530465 0.356771
0.805447 0.459113 0.192706
1 0.447349 0.179248
1 0.480293 0.210452
1 0.512474 0.240986
1 0.543816 0.270466
1 0.574014 0.299107
1 0.602945 0.326436
1 0.630472 0.352041
1 0.656352 0.37644
0.975982 0.57406 0.196109
1 0.588266 0.208652
1 0.618708 0.23772
1 0.648005 0.265293
1 0.67599 0.291661
1 0.702434 0.316762
1 0.727352 0.339834
1 0.750469 0.361486
1 0.771618 0.381262
1 0.693904 0.203861
1 0.721996 0.23032
1 0.749096 0.255787
1 0.774411 0.279469
1 0.798047 0.301671
1 0.820127 0.322118
1 0.83917 0.339467
1 0.8477 0.346624
1 0.847974 0.345174
1 0.820554 0.220401
1 0.845029 0.243168
1 0.867781 0.264286
1 0.888319 0.28307
1 0.901015 0.29427
1 0.904021 0.295308
1 0.901137 0.290806
1 0.895338 0.283543
1 0.888518 0.274632
0 0 0.261631
0.245884 0 0.225757
0.588342 0 0.173892
0.875074 0 0.13695
0.961501 0 0.154406
1 0 0.174548
1 0 0.196353
1 0 0.220661
1 0 0.246723
0.105989 0.0700847 0.254643
0.419013 0.0296178 0.210559
0.755337 0 0.161685
0.94287 0 0.154437
1 0.00665293 0.177966
1 0.035172 0.203525
1 0.0648814 0.229892
1 0.0960403 0.258
1 0.12813 0.287022
0.259129 0.154452 0.247517
0.602716 0.110048 0.200198
0.912108 0.0775616 0.164767
1 0.102556 0.186297
1 0.133257 0.21413
1 0.165011 0.242847
1 0.19762 0.27248
1 0.230686 0.302892
1 0.263676 0.332967
0.439811 0.246509 0.244312
0.787472 0.206424 0.201709
1 0.202655 0.194903
1 0.23508 0.224933
1 0.267918 0.255375
1 0.301167 0.285756
1 0.334401 0.316533
1 0.367361 0.347082
1 0.399847 0.376776
0.63183 0.348531 0.242847
0.956252 0.318105 0.210208
1 0.341344 0.231006
1 0.374395 0.262058
1 0.407446 0.292836
1 0.44004 0.323156
1 0.471855 0.353063
1 0.502708 0.381765
1 0.532448 0.409308
0.819226 0.458579 0.243931
1 0.449744 0.232807
1 0.482734 0.26392
1 0.514778 0.29427
1 0.5458 0.323033
1 0.575769 0.351354
1 0.604486 0.378424
1 0.631861 0.403586
1 0.657542 0.427649
0.987686 0.573754 0.246616
1 0.590204 0.261204
1 0.620645 0.29012
1 0.649943 0.317464
1 0.677729 0.343526
1 0.70396 0.368261
1 0.72845 0.390692
1 0.751278 0.412055
1 0.772091 0.431449
1 0.695247 0.255375
1 0.723537 0.282002
1 0.750378 0.307317
1 0.775692 0.330556
1 0.799222 0.352636
1 0.820935 0.372885
1 0.839017 0.388983
1 0.846113 0.39469
1 0.845426 0.39237
1 0.821866 0.271641
1 0.84596 0.294133
1 0.868559 0.314748
1 0.888716 0.333181
1 0.899855 0.342794
1 0.901854 0.342687
1 0.898436 0.337758
1 0.892363 0.330205
1 0.885496 0.321279
0 0 0.320958
0.257679 0 0.284108
0.600595 0 0.231815
0.878965 0 0.196643
0.962875 0 0.214908
1 0 0.235157
1 0 0.256886
1 0 0.281102
1 0 0.306767
0.115846 0.0679484 0.313024
0.431876 0.0264897 0.267857
0.766262 0 0.219348
0.944503 0 0.214603
1 0.00741588 0.237964
1 0.0362249 0.263157
1 0.0663767 0.289998
1 0.0977493 0.317861
1 0.130007 0.346548
0.271183 0.152346 0.305043
0.616266 0.107973 0.257343
0.919799 0.077409 0.223178
1 0.103685 0.246006
1 0.134585 0.273625
1 0.166491 0.302007
1 0.199222 0.331289
1 0.23238 0.361227
1 0.265751 0.391165
0.453544 0.244556 0.300771
0.800092 0.205325 0.258656
1 0.204532 0.254444
1 0.237064 0.28397
1 0.269947 0.31397
1 0.302876 0.34374
1 0.336187 0.373953
1 0.369131 0.40383
1 0.40148 0.433417
0.645884 0.347066 0.298344
0.966918 0.317693 0.266361
1 0.34342 0.289021
1 0.376577 0.319753
1 0.409583 0.350057
1 0.442145 0.37995
1 0.473854 0.409262
1 0.504295 0.437049
1 0.533852 0.463996
0.832166 0.45771 0.298528
1 0.451621 0.289601
1 0.484581 0.320378
1 0.516564 0.350195
1 0.547723 0.378592
1 0.57763 0.406409
1 0.60621 0.4327
1 0.633326 0.457557
1 0.658534 0.480873
0.999191 0.573587 0.300847
1 0.591974 0.316594
1 0.622232 0.344869
1 0.651301 0.37174
1 0.678996 0.397253
1 0.705013 0.4215
1 0.729427 0.44387
1 0.752194 0.464546
1 0.772686 0.483207
1 0.696895 0.309712
1 0.725185 0.336141
1 0.751812 0.360967
1 0.776699 0.383459
1 0.799969 0.404959
1 0.821393 0.424475
1 0.838224 0.439185
1 0.844099 0.443458
1 0.842786 0.440299
1 0.823087 0.324849
1 0.847074 0.346914
1 0.869444 0.366842
1 0.889036 0.384573
1 0.898482 0.392279
1 0.899413 0.391165
1 0.895582 0.385397
1 0.889296 0.377371
1 0.882338 0.368536
0 0 0.382635
0.269398 0 0.345205
0.612573 0 0.292576
0.88191 0 0.25951
0.964065 0 0.277958
1 0 0.298039
1 0 0.320027
1 0 0.344274
1 0 0.369833
0.125093 0.065507 0.373983
0.444602 0.0235142 0.328054
0.776928 0 0.27985
0.946258 0 0.277897
1 0.00830091 0.301335
1 0.0372473 0.326329
1 0.0673838 0.352865
1 0.098909 0.380591
1 0.131289 0.409094
0.282704 0.149752 0.365179
0.628977 0.10547 0.317296
0.925856 0.0770886 0.285023
1 0.104875 0.309255
1 0.136019 0.336599
1 0.168078 0.364828
1 0.200717 0.394003
1 0.233814 0.423072
1 0.267185 0.453025
0.46685 0.242466 0.360433
0.811887 0.203861 0.318624
1 0.205814 0.317067
1 0.238422 0.346227
1 0.271443 0.375784
1 0.304692 0.40589
1 0.338003 0.435737
1 0.370916 0.465156
1 0.403067 0.494148
0.659907 0.345724 0.357794
0.977005 0.317464 0.32639
1 0.344915 0.350729
1 0.378103 0.381109
1 0.411063 0.410971
1 0.44358 0.440406
1 0.475227 0.469001
1 0.505806 0.49688
1 0.535134 0.523491
0.845182 0.45687 0.357473
1 0.453468 0.351141
1 0.486351 0.381109
1 0.518013 0.409934
1 0.548959 0.438392
1 0.578805 0.465461
1 0.607217 0.491112
1 0.634104 0.515557
1 0.65948 0.538186
1 0.572824 0.358419
1 0.593606 0.376471
1 0.623789 0.404288
1 0.652689 0.430533
1 0.680156 0.455299
1 0.705776 0.478538
1 0.729992 0.500298
1 0.752575 0.520348
1 0.772702 0.538048
1 0.697902 0.368154
1 0.726162 0.394034
1 0.752621 0.418006
1 0.777462 0.44033
1 0.800641 0.461082
1 0.821759 0.479774
1 0.836988 0.492775
1 0.841703 0.495186
1 0.839811 0.490944
1 0.823804 0.381521
1 0.847593 0.402975
1 0.869657 0.422385
1 0.888563 0.438773
1 0.896742 0.444663
1 0.896773 0.442267
1 0.8925 0.435569
1 0.886076 0.42681
1 0.879118 0.417914
0 0 0.445975
0.281086 0 0.407538
0.624308 0 0.35465
0.884337 0 0.324285
0.965393 0 0.343267
1 0 0.363226
1 0 0.385489
1 0 0.409598
1 0.000350958 0.435035
0.1346 0.0629587 0.436851
0.457404 0.0200046 0.390051
0.787274 0 0.342275
0.947738 0 0.342962
1 0.00869764 0.366659
1 0.0380407 0.391592
1 0.068574 0.418357
1 0.100206 0.445945
1 0.132738 0.474449
0.294881 0.147189 0.42768
0.641871 0.102953 0.379431
0.931029 0.0767681 0.349187
1 0.105653 0.374334
1 0.136965 0.401343
1 0.169146 0.429801
1 0.202014 0.458946
1 0.235386 0.488029
1 0.268772 0.517723
0.480568 0.240452 0.422583
0.823911 0.202564 0.380972
1 0.207279 0.38233
1 0.23978 0.411139
1 0.272679 0.440314
1 0.305974 0.470192
1 0.339223 0.499702
1 0.372137 0.528984
1 0.404303 0.557778
0.673304 0.343877 0.419379
0.985534 0.317128 0.389227
1 0.346502 0.415503
1 0.379782 0.445136
1 0.41268 0.475044
1 0.444877 0.504219
1 0.47631 0.532036
1 0.506752 0.559472
1 0.535912 0.585641
0.857298 0.455604 0.418494
1 0.454841 0.414923
1 0.487694 0.444633
1 0.519509 0.47332
1 0.550317 0.50135
1 0.580011 0.527932
1 0.60824 0.553109
1 0.634806 0.576974
1 0.659815 0.598657
1 0.571954 0.419409
1 0.594675 0.439277
1 0.624781 0.466484
1 0.653513 0.492287
1 0.680812 0.516823
1 0.706523 0.539483
1 0.73051 0.560906
1 0.752804 0.580499
1 0.772305 0.596979
1 0.698955 0.430411
1 0.727047 0.455619
1 0.753109 0.478782
1 0.777707 0.500816
1 0.800717 0.520912
1 0.82153 0.538872
1 0.835233 0.550088
1 0.839017 0.550774
1 0.836545 0.545892
1 0.824445 0.442374
1 0.848035 0.463218
1 0.86978 0.481987
1 0.887556 0.496773
1 0.894331 0.500648
1 0.893599 0.497383
1 0.88896 0.489982
1 0.882445 0.480629
1 0.875593 0.471336
0 0 0.510216
0.292882 0 0.471015
0.635599 0 0.417777
0.885847 0 0.390127
0.966354 0 0.409369
1 0 0.429465
1 0 0.451957
1 0 0.476295
1 0.00128176 0.502068
0.143954 0.0603342 0.500694
0.469963 0.016846 0.4533
0.79736 0 0.406394
0.949462 0 0.409674
1 0.00921645 0.433112
1 0.0386358 0.458259
1 0.0693217 0.485054
1 0.101091 0.512581
1 0.133745 0.5411
0.306523 0.144366 0.491096
0.654322 0.100511 0.442832
0.935088 0.0770733 0.415518
1 0.106661 0.441276
1 0.138094 0.468421
1 0.170443 0.496742
1 0.203174 0.52549
1 0.236408 0.55462
1 0.269841 0.584054
0.493919 0.237964 0.486137
0.835004 0.200916 0.444984
1 0.208255 0.448829
1 0.24094 0.477699
1 0.274128 0.507042
1 0.307439 0.536812
1 0.340658 0.56614
1 0.373266 0.594888
1 0.405264 0.623316
0.686763 0.342092 0.482582
0.99205 0.317098 0.454353
1 0.347646 0.481712
1 0.380941 0.511131
1 0.413794 0.540795
1 0.446036 0.569848
1 0.477546 0.597528
1 0.50782 0.624643
1 0.536843 0.650141
0.869596 0.454475 0.482139
1 0.456413 0.481071
1 0.488899 0.510353
1 0.520485 0.538476
1 0.551156 0.566186
1 0.580667 0.592218
1 0.608728 0.617197
1 0.635203 0.640742
1 0.660136 0.662211
1 0.571283 0.482902
1 0.595895 0.504631
1 0.625895 0.531106
1 0.654261 0.556619
1 0.681178 0.580697
1 0.706752 0.602762
1 0.73051 0.623728
1 0.752529 0.642649
1 0.771344 0.658381
1 0.69958 0.494759
1 0.727596 0.519539
1 0.753658 0.542412
1 0.778058 0.563989
1 0.800855 0.583352
1 0.821164 0.6009
1 0.833234 0.610239
1 0.835966 0.609598
1 0.832959 0.603861
1 0.824552 0.505455
1 0.847959 0.525505
1 0.869398 0.54403
1 0.885863 0.557382
1 0.891554 0.559808
1 0.890135 0.55555
1 0.885115 0.547662
1 0.878553 0.537743
1 0.871809 0.528283
0.00788891 0 0.573968
0.304753 0 0.534066
0.647196 0 0.481147
0.887434 0 0.456428
0.96762 0 0.475868
1 0 0.496284
1 0 0.518837
1 0 0.543236
1 0.00187686 0.56936
0.153338 0.0575418 0.564508
0.482506 0.0133669 0.516258
0.80737 0 0.470603
0.950866 0 0.476463
1 0.00982681 0.500267
1 0.0394751 0.525887
1 0.0703746 0.552728
1 0.102251 0.580362
1 0.134646 0.608713
0.318563 0.141848 0.5552
0.666835 0.0979171 0.507027
0.938476 0.0771344 0.482216
1 0.107347 0.508492
1 0.138872 0.535897
1 0.171359 0.564233
1 0.204395 0.593042
1 0.237736 0.622492
1 0.271168 0.651789
0.507393 0.235843 0.550378
0.846281 0.199573 0.51014
1 0.209232 0.516243
1 0.241917 0.545037
1 0.275166 0.574426
1 0.308476 0.604135
1 0.341665 0.633371
1 0.374426 0.662257
1 0.406424 0.690303
0.700008 0.340307 0.547158
0.998245 0.317479 0.520958
1 0.349081 0.549294
1 0.382315 0.578698
1 0.414862 0.607874
1 0.446983 0.636378
1 0.478309 0.66421
1 0.508461 0.69099
1 0.537301 0.716182
0.881132 0.452995 0.546685
1 0.457527 0.548135
1 0.489998 0.577173
1 0.521645 0.605402
1 0.552163 0.632822
1 0.58143 0.658671
1 0.60911 0.682948
1 0.63534 0.705852
1 0.659983 0.727367
1 0.570336 0.547677
1 0.596674 0.571023
1 0.62652 0.597192
1 0.654871 0.622568
1 0.681727 0.646113
1 0.707057 0.668132
1 0.730587 0.688716
1 0.7523 0.707149
1 0.769818 0.721401
1 0.700236 0.560754
1 0.727932 0.584787
1 0.75378 0.60763
1 0.777966 0.62884
1 0.800458 0.648035
1 0.820569 0.664851
1 0.831128 0.67248
1 0.832685 0.670787
1 0.829221 0.664103
1 0.824674 0.570855
1 0.847929 0.590311
1 0.868879 0.608148
1 0.883726 0.619898
1 0.88838 0.620844
1 0.886397 0.615839
1 0.881102 0.607217
1 0.874479 0.597299
1 0.867872 0.587732
0.017319 0 0.636896
0.316564 0 0.596078
0.658228 0 0.543526
0.888518 0 0.521737
0.968704 0 0.541329
1 0 0.562325
1 0 0.585534
1 0 0.610254
1 0.00285344 0.636622
0.163317 0.055024 0.627649
0.495186 0.0102693 0.578836
0.817212 0 0.534524
0.952346 0 0.542733
1 0.0102541 0.566857
1 0.0400397 0.592828
1 0.0711223 0.619623
1 0.10312 0.647654
1 0.135866 0.67657
0.330861 0.13904 0.618402
0.679454 0.0956436 0.570962
0.941619 0.07776 0.549065
1 0.108415 0.575677
1 0.140002 0.603433
1 0.17229 0.631647
1 0.205371 0.660563
1 0.238727 0.690074
1 0.27216 0.719265
0.520851 0.233387 0.613947
0.857298 0.19794 0.574807
1 0.210422 0.58378
1 0.243244 0.612787
1 0.276524 0.642283
1 0.30985 0.671809
1 0.342931 0.701167
1 0.375235 0.729854
1 0.407187 0.757534
0.713268 0.338262 0.611627
1 0.317815 0.58764
1 0.350164 0.616449
1 0.383276 0.646281
1 0.416098 0.675517
1 0.448173 0.70399
1 0.479301 0.731838
1 0.5093 0.758114
1 0.537682 0.782956
0.892973 0.45185 0.611856
1 0.45861 0.615549
1 0.490898 0.644419
1 0.522423 0.672526
1 0.552804 0.699596
1 0.581872 0.725429
1 0.609583 0.749706
1 0.635676 0.772335
1 0.660075 0.793622
1 0.570108 0.613764
1 0.597726 0.638086
1 0.627253 0.664561
1 0.655238 0.689174
1 0.681849 0.712428
1 0.706859 0.734401
1 0.730251 0.754452
1 0.751659 0.772488
1 0.767865 0.785702
1 0.700954 0.627726
1 0.728374 0.651743
1 0.754086 0.674067
1 0.778027 0.694972
1 0.800031 0.713603
1 0.819486 0.729686
1 0.828611 0.735454
1 0.82919 0.733028
1 0.825254 0.725734
1 0.824506 0.636805
1 0.847532 0.655985
1 0.868299 0.673564
1 0.881636 0.683391
1 0.885145 0.683406
1 0.882567 0.677684
1 0.876966 0.668605
1 0.870207 0.65861
1 0.863798 0.648554
0.0267338 0 0.697749
0.329137 0 0.656321
0.669749 0 0.604471
0.889784 0 0.585748
0.970214 0 0.605615
1 0 0.627008
1 0 0.650462
1 0 0.675654
1 0.00364691 0.702388
0.17322 0.0523537 0.688884
0.507759 0.00701915 0.639673
0.826902 0 0.596658
0.954253 0 0.607706
1 0.0111086 0.632441
1 0.0410773 0.658778
1 0.0721599 0.685618
1 0.104082 0.713878
1 0.136904 0.742977
0.343175 0.136446 0.680064
0.691615 0.09337 0.633356
0.944106 0.078294 0.614511
1 0.109239 0.641535
1 0.140993 0.669657
1 0.173571 0.698512
1 0.206775 0.727489
1 0.240146 0.757168
1 0.273335 0.786328
0.534478 0.231449 0.676936
0.868391 0.196719 0.638911
1 0.21146 0.649897
1 0.244327 0.67924
1 0.277546 0.709087
1 0.310933 0.73846
1 0.343969 0.768048
1 0.376471 0.797055
1 0.408286 0.824704
0.726421 0.336797 0.67541
1 0.318822 0.654047
1 0.351537 0.683345
1 0.38436 0.713054
1 0.417105 0.742275
1 0.449058 0.770794
1 0.480034 0.798566
1 0.509926 0.824628
1 0.538323 0.84979
0.904341 0.450416 0.676356
1 0.459998 0.682521
1 0.492164 0.711528
1 0.523476 0.739788
1 0.553674 0.766339
1 0.58233 0.791974
1 0.609751 0.816327
1 0.635706 0.83859
1 0.659876 0.859709
1 0.569879 0.679408
1 0.598413 0.704677
1 0.627756 0.731106
1 0.655802 0.755856
1 0.682216 0.778988
1 0.706981 0.800778
1 0.730098 0.820249
1 0.750942 0.838056
1 0.765652 0.84979
1 0.701442 0.694362
1 0.728557 0.718135
1 0.754055 0.740291
1 0.777798 0.760678
1 0.799725 0.779583
1 0.818189 0.794888
1 0.82591 0.799069
1 0.825605 0.795743
1 0.82118 0.787915
1 0.824582 0.702861
1 0.847044 0.722072
1 0.867521 0.739147
1 0.879301 0.747417
1 0.881682 0.746532
1 0.878645 0.739788
1 0.872786 0.730755
1 0.865934 0.720745
1 0.859663 0.710658
